client/src/static/images/logos/youtube_logo.svg

<?xml version="1.0" encoding="UTF-8"?>
<svg width="71.412" height="50" version="1.1" viewBox="0 0 71.412065 50" xmlSpace="preserve" xmlns="http://www.w3.org/2000/svg" xmlnsCc="http://creativecommons.org/ns#" xmlnsDc="http://purl.org/dc/elements/1.1/" xmlnsRdf="http://www.w3.org/1999/02/22-rdf-syntax-ns#"><metadata><rdfRDF><ccWork rdfAbout=""><dcFormat>image/svg+xml</dcFormat><dcType rdfResource="http://purl.org/dc/dcmitype/StillImage"/><dcTitle/></ccWork></rdfRDF></metadata><style type="text/css">
	.st0{fill:#FF0000;}
	.st1{fill:#FFFFFF;}
	.st2{fill:#282828;}
</style><g transform="scale(.58824)"><path class="st0" d="m118.9 13.3c-1.4-5.2-5.5-9.3-10.7-10.7-9.5-2.6-47.5-2.6-47.5-2.6s-38 0-47.5 2.5c-5.1 1.4-9.3 5.6-10.7 10.8-2.5 9.5-2.5 29.2-2.5 29.2s0 19.8 2.5 29.2c1.4 5.2 5.5 9.3 10.7 10.7 9.6 2.6 47.5 2.6 47.5 2.6s38 0 47.5-2.5c5.2-1.4 9.3-5.5 10.7-10.7 2.5-9.5 2.5-29.2 2.5-29.2s0.1-19.8-2.5-29.3z" fill="#f00"/><polygon class="st1" points="80.2 42.5 48.6 24.3 48.6 60.7" fill="#fff"/></g></svg>

<?xml version="1.0" encoding="UTF-8" standalone="no"?>
<!-- Generator: Adobe Illustrator 21.1.0, SVG Export Plug-In . SVG Version: 6.00 Build 0)  -->

<svg
   xmlns:dc="http://purl.org/dc/elements/1.1/"
   xmlns:cc="http://creativecommons.org/ns#"
   xmlns:rdf="http://www.w3.org/1999/02/22-rdf-syntax-ns#"
   xmlns:svg="http://www.w3.org/2000/svg"
   xmlns="http://www.w3.org/2000/svg"
   xmlns:sodipodi="http://sodipodi.sourceforge.net/DTD/sodipodi-0.dtd"
   xmlns:inkscape="http://www.inkscape.org/namespaces/inkscape"
   version="1.1"
   id="Layer_1"
   x="0px"
   y="0px"
   viewBox="0 0 71.412065 50"
   xml:space="preserve"
   inkscape:version="0.91 r13725"
   sodipodi:docname="YouTube_full-color_icon (2017).svg"
   width="71.412064"
   height="50"><metadata
     id="metadata33"><rdf:RDF><cc:Work
         rdf:about=""><dc:format>image/svg+xml</dc:format><dc:type
           rdf:resource="http://purl.org/dc/dcmitype/StillImage" /><dc:title></dc:title></cc:Work></rdf:RDF></metadata><defs
     id="defs31" /><sodipodi:namedview
     pagecolor="#ffffff"
     bordercolor="#666666"
     borderopacity="1"
     objecttolerance="10"
     gridtolerance="10"
     guidetolerance="10"
     inkscape:pageopacity="0"
     inkscape:pageshadow="2"
     inkscape:window-width="1366"
     inkscape:window-height="715"
     id="namedview29"
     showgrid="false"
     fit-margin-top="0"
     fit-margin-left="0"
     fit-margin-right="0"
     fit-margin-bottom="0"
     inkscape:zoom="1.3588925"
     inkscape:cx="-71.668263"
     inkscape:cy="39.237696"
     inkscape:window-x="-8"
     inkscape:window-y="-8"
     inkscape:window-maximized="1"
     inkscape:current-layer="Layer_1" /><style
     type="text/css"
     id="style3">
	.st0{fill:#FF0000;}
	.st1{fill:#FFFFFF;}
	.st2{fill:#282828;}
</style><g
     id="g5"
     transform="scale(0.58823529,0.58823529)"><path
       class="st0"
       d="M 118.9,13.3 C 117.5,8.1 113.4,4 108.2,2.6 98.7,0 60.7,0 60.7,0 60.7,0 22.7,0 13.2,2.5 8.1,3.9 3.9,8.1 2.5,13.3 0,22.8 0,42.5 0,42.5 0,42.5 0,62.3 2.5,71.7 3.9,76.9 8,81 13.2,82.4 22.8,85 60.7,85 60.7,85 c 0,0 38,0 47.5,-2.5 5.2,-1.4 9.3,-5.5 10.7,-10.7 2.5,-9.5 2.5,-29.2 2.5,-29.2 0,0 0.1,-19.8 -2.5,-29.3 z"
       id="path7"
       inkscape:connector-curvature="0"
       style="fill:#ff0000" /><polygon
       class="st1"
       points="80.2,42.5 48.6,24.3 48.6,60.7 "
       id="polygon9"
       style="fill:#ffffff" /></g></svg>
